X:1016
T:Baille de Panderu (CT 261)
R:Panderu
C:Tradicional
S:Msica Tradicional Asturiana, (C) Tello & Tito. Asturies, 2001.
S:http://pagina.de/MusTradAst <telloytito@asturies.org>
N:Cancin de baile de pandero, transcrita en La Pola Siero.
O:La Pola Siero (Siero)
A:Asturies
Z:Cancioneru de Torner 261
M:6/8
L:1/8
Q:3/8=88
W:Tengo'l corazn de lutu
W:y l'alma enllena de pena
W:por un galn de mi gusto
W:que nun s'halla nesta tierra.
K:G
|GGG GAB|c2c- c3|ddd cGA|B2B- B2z|
ccc cBA|B2G- G3|AAA AGF|G2G- G3-|G2 z4||
